public/images/icons/Java.svg

<svg width="198" height="199" viewBox="0 0 198 199" fill="none" xmlns="http://www.w3.org/2000/svg">
<path d="M81.4982 54.7961C96.4189 41.4702 120.462 27.2204 117.421 3.55358C117.327 2.84286 117.621 2.32167 118.305 1.99C118.423 1.91893 118.541 1.89524 118.659 1.91893C119.012 1.96631 119.248 2.15584 119.366 2.4875C129.372 29.85 107.238 45.4857 89.8779 61.4413C74.1793 75.9043 81.8518 95.0936 95.4997 107.034C95.6175 107.152 95.6764 107.294 95.6764 107.46C95.7 107.839 95.6057 108.171 95.3936 108.455C95.1579 108.739 94.875 108.787 94.545 108.597C73.6843 96.5861 59.6829 74.3763 81.4982 54.7961Z" fill="#EA2E2F"/>
<path d="M134.534 43.1759C124.54 48.1509 117.138 54.6895 112.33 62.7916C106.92 71.9243 111.87 80.9859 117.032 88.7327C123.609 98.6471 116.502 109.45 107.486 114.603C105.671 115.645 105.341 115.29 106.496 113.537C118.942 94.4184 85.1047 83.7932 104.162 60.7661C111.045 52.427 121.051 46.1846 134.18 42.0387C134.487 41.944 134.699 42.0506 134.817 42.3586H134.852C134.994 42.7376 134.888 43.0101 134.534 43.1759Z" fill="#EA2E2F"/>
<path d="M157.728 128.568C162.136 120.632 160.84 114.472 153.839 110.09C152.731 109.403 151.529 109.047 150.233 109.024C149.384 109.024 148.571 108.834 147.793 108.455C146.473 107.839 146.532 107.413 147.97 107.176C163.562 104.475 177.74 117.41 165.118 131.447C159.225 138.033 151.223 142.557 141.11 145.021C138.73 145.59 138.565 145.199 140.615 143.849C147.015 139.655 153.91 135.498 157.728 128.568Z" fill="#0094F0"/>
<path d="M62.7944 113.075C58.4101 114.733 58.3983 116.415 62.759 118.121C65.069 119.021 67.5087 119.637 70.078 119.969C92.4001 122.882 113.862 122.195 134.463 117.907C136.137 117.552 137.681 117.86 139.095 118.831L140.863 120.04C142.183 120.94 142.077 121.591 140.545 121.994C115.135 128.935 88.6051 129.919 60.9558 124.944C56.383 124.114 52.2344 122.646 48.5101 120.537C47.9649 120.228 47.5163 119.773 47.2149 119.222C46.9136 118.67 46.7714 118.045 46.8045 117.417C46.8376 116.789 47.0446 116.183 47.4022 115.667C47.7598 115.151 48.2537 114.745 48.8283 114.496C57.1962 110.919 66.1651 109.047 75.7351 108.881C76.0651 108.881 76.2419 109.047 76.2655 109.379V109.414C76.3126 109.865 76.1005 110.113 75.629 110.161C71.0797 110.563 66.8015 111.535 62.7944 113.075Z" fill="#0094F0"/>
<path d="M68.2394 135C68.1096 135.27 68.042 135.565 68.0417 135.865C68.0413 136.164 68.1082 136.46 68.2374 136.73C68.3665 136.999 68.5546 137.236 68.7875 137.423C69.0205 137.61 69.2924 137.741 69.5829 137.807C87.0022 142.048 105.07 142.024 123.785 137.736C125.294 137.381 126.732 137.571 128.099 138.305L131.776 140.188C133.874 141.278 133.803 142.155 131.564 142.818C108.063 149.949 84.5154 150.186 60.9204 143.529C59.129 143.031 57.5379 142.178 56.1472 140.97C55.6606 140.561 55.2938 140.026 55.0863 139.423C54.8787 138.82 54.8381 138.172 54.9689 137.548C55.0996 136.924 55.3968 136.347 55.8286 135.879C56.2603 135.412 56.8105 135.071 57.4201 134.894L66.2947 132.299C67.1904 132.039 67.8504 132.335 68.2747 133.188C68.5576 133.78 68.5458 134.384 68.2394 135Z" fill="#0094F0"/>
<path d="M78.0333 158.702C89.7247 160.953 101.616 160.894 113.709 158.525C115.5 158.169 117.174 158.477 118.729 159.449L123.679 162.54C125.235 163.512 125.141 164.27 123.396 164.815C104.021 170.95 85.1165 170.868 66.6836 164.566C65.908 164.3 65.2204 163.824 64.6964 163.191C64.1724 162.558 63.8323 161.792 63.7136 160.977C63.4072 158.892 64.1733 157.482 66.0118 156.748C67.544 156.132 69.1115 155.516 70.7143 154.9C72.7415 154.118 74.25 154.687 75.24 156.606C75.5154 157.138 75.9091 157.603 76.3924 157.966C76.8756 158.328 77.4363 158.58 78.0333 158.702Z" fill="#0094F0"/>
<path d="M43.7015 167.586C43.2629 168.044 42.9477 168.606 42.7858 169.22C42.6239 169.834 42.6208 170.48 42.7766 171.096C42.9324 171.711 43.242 172.277 43.6761 172.738C44.1102 173.2 44.6545 173.543 45.2572 173.734C74.3915 183.092 106.072 183.885 140.297 176.115C145.601 174.907 150.056 172.431 153.662 168.688C154.817 167.527 155.63 167.729 156.102 169.292L156.491 170.571C156.704 171.29 156.718 172.054 156.531 172.781C156.344 173.507 155.963 174.169 155.43 174.694C151.942 178.152 147.628 180.486 142.489 181.694C109.537 189.346 76.1358 189.417 42.2872 181.907C37.7144 180.889 33.5422 179.005 29.7708 176.257C29.1823 175.826 28.7083 175.256 28.3896 174.597C28.0709 173.938 27.9171 173.21 27.9415 172.476C27.9658 171.741 28.1676 171.023 28.5294 170.381C28.8912 169.74 29.4022 169.195 30.0183 168.795C37.3726 164.057 45.7051 161.32 55.0158 160.586C55.1101 160.562 55.169 160.61 55.1926 160.728L55.2987 161.616C55.3222 161.995 55.1455 162.209 54.7683 162.256C50.1955 162.848 46.5065 164.625 43.7015 167.586Z" fill="#0094F0"/>
<path d="M150.551 189.761C118.635 199.545 86.2478 200.374 53.3893 192.248C53.2007 192.201 53.1536 192.26 53.2478 192.426C53.3893 192.71 53.2714 192.461 52.8943 191.68C52.5878 191.087 52.7646 190.827 53.4246 190.898C82.1346 194.913 109.43 195.233 138.459 188.908C146.567 187.131 153.827 184.182 160.239 180.059C166.249 176.222 166.921 177.003 162.254 182.405C159.307 185.816 155.406 188.268 150.551 189.761Z" fill="#0094F0"/>
</svg>

<svg width="198" height="199" fill="none" xmlns="http://www.w3.org/2000/svg"><path d="M81.498 54.796c14.92-13.326 38.964-27.576 35.923-51.242-.094-.711.2-1.232.884-1.564a.485.485 0 0 1 .354-.071c.353.047.589.237.707.568 10.006 27.363-12.128 42.999-29.488 58.954-15.699 14.463-8.026 33.653 5.622 45.593.118.118.176.26.176.426.024.379-.07.711-.282.995-.236.284-.519.332-.849.142-20.86-12.01-34.862-34.22-13.047-53.8Z" fill="#EA2E2F"/><path d="M134.534 43.176c-9.994 4.975-17.396 11.514-22.204 19.616-5.41 9.132-.46 18.194 4.702 25.94 6.577 9.915-.53 20.718-9.546 25.871-1.815 1.042-2.145.687-.99-1.066 12.446-19.119-21.391-29.744-2.334-52.77 6.883-8.34 16.889-14.582 30.018-18.728.307-.095.519.012.637.32h.035c.142.379.036.651-.318.817Z" fill="#EA2E2F"/><path d="M157.728 128.568c4.408-7.936 3.112-14.096-3.889-18.478a6.96 6.96 0 0 0-3.606-1.066c-.849 0-1.662-.19-2.44-.569-1.32-.616-1.261-1.042.177-1.279 15.592-2.701 29.77 10.234 17.148 24.271-5.893 6.586-13.895 11.11-24.008 13.574-2.38.569-2.545.178-.495-1.172 6.4-4.194 13.295-8.351 17.113-15.281ZM62.794 113.075c-4.384 1.658-4.396 3.34-.035 5.046 2.31.9 4.75 1.516 7.319 1.848 22.322 2.913 43.784 2.226 64.385-2.062 1.674-.355 3.218-.047 4.632.924l1.768 1.209c1.32.9 1.214 1.551-.318 1.954-25.41 6.941-51.94 7.925-79.59 2.95-4.572-.83-8.72-2.298-12.445-4.407a3.37 3.37 0 0 1-1.706-3.12c.034-.628.24-1.234.598-1.75a3.363 3.363 0 0 1 1.426-1.171c8.368-3.577 17.337-5.449 26.907-5.615.33 0 .507.166.53.498v.035c.048.451-.165.699-.636.747-4.55.402-8.828 1.374-12.835 2.914ZM68.24 135a2 2 0 0 0 .547 2.423c.233.187.505.318.796.384 17.42 4.241 35.487 4.217 54.202-.071 1.509-.355 2.947-.165 4.314.569l3.677 1.883c2.098 1.09 2.027 1.967-.212 2.63-23.501 7.131-47.049 7.368-70.644.711a12.148 12.148 0 0 1-4.773-2.559 3.533 3.533 0 0 1-.319-5.091 3.496 3.496 0 0 1 1.592-.985l8.875-2.595c.895-.26 1.555.036 1.98.889.283.592.27 1.196-.036 1.812ZM78.033 158.702c11.692 2.251 23.583 2.192 35.676-.177 1.791-.356 3.465-.048 5.02.924l4.95 3.091c1.556.972 1.462 1.73-.283 2.275-19.375 6.135-38.28 6.053-56.712-.249a4.458 4.458 0 0 1-1.988-1.375 4.486 4.486 0 0 1-.982-2.214c-.307-2.085.46-3.495 2.298-4.229 1.532-.616 3.1-1.232 4.702-1.848 2.028-.782 3.536-.213 4.526 1.706.275.532.67.997 1.152 1.36a4.11 4.11 0 0 0 1.641.736Z" fill="#0094F0"/><path d="M43.702 167.586a3.741 3.741 0 0 0 1.555 6.148c29.134 9.358 60.815 10.151 95.04 2.381 5.304-1.208 9.759-3.684 13.365-7.427 1.155-1.161 1.968-.959 2.44.604l.389 1.279a4.146 4.146 0 0 1-1.061 4.123c-3.488 3.458-7.802 5.792-12.941 7-32.952 7.652-66.353 7.723-100.202.213a33.33 33.33 0 0 1-12.516-5.65 4.467 4.467 0 0 1-1.381-1.66 4.526 4.526 0 0 1-.448-2.121 4.574 4.574 0 0 1 2.076-3.681c7.355-4.738 15.687-7.475 24.998-8.209.094-.024.153.024.177.142l.106.888c.023.379-.154.593-.53.64-4.573.592-8.262 2.369-11.067 5.33Z" fill="#0094F0"/><path d="M150.551 189.761c-31.916 9.784-64.303 10.613-97.162 2.487-.188-.047-.235.012-.141.178.141.284.023.035-.354-.746-.306-.593-.13-.853.53-.782 28.71 4.015 56.006 4.335 85.035-1.99 8.108-1.777 15.368-4.726 21.78-8.849 6.01-3.837 6.682-3.056 2.015 2.346-2.947 3.411-6.848 5.863-11.703 7.356Z" fill="#0094F0"/></svg>
